src/assets/svgs/s3.svg

<svg width="48" height="48" viewBox="0 0 48 48" fill="none" xmlns="http://www.w3.org/2000/svg">
<g id="insurance">
<path id="Vector" d="M43.2385 7.24008L24.857 1.05838C24.6256 0.980538 24.3747 0.980538 24.1433 1.05838L5.76167 7.24008C5.3065 7.39316 5 7.81936 5 8.2991V23.6472C5 35.015 13.1119 44.8278 24.2883 46.9798C24.3582 46.9933 24.4292 47 24.5 47C24.5708 47 24.6418 46.9933 24.7117 46.9798C35.8881 44.8278 44 35.0149 44 23.6472V8.2991C44.0002 7.81936 43.6936 7.39316 43.2385 7.24008ZM41.763 23.6472C41.763 33.8742 34.5166 42.7118 24.5001 44.7436C14.4836 42.7118 7.23719 33.8742 7.23719 23.6472V9.10196L24.5001 3.29646L41.763 9.10205V23.6472ZM13.0356 23.0688C13.0356 29.3837 18.1785 34.5211 24.5001 34.5211C30.8216 34.5211 35.9645 29.3837 35.9645 23.0688C35.9645 16.7541 30.8216 11.6166 24.5001 11.6166C18.1785 11.6165 13.0356 16.754 13.0356 23.0688ZM33.7273 23.0688C33.7273 28.1514 29.5879 32.2863 24.5001 32.2863C19.4122 32.2863 15.2728 28.1514 15.2728 23.0688C15.2728 17.9863 19.4122 13.8514 24.5001 13.8514C29.5879 13.8513 33.7273 17.9863 33.7273 23.0688ZM24.5001 15.3074C25.1178 15.3074 25.6187 15.8077 25.6187 16.4248V16.9662C27.0595 17.3009 28.2288 18.2677 28.6313 19.5422C28.8172 20.1307 28.4902 20.7583 27.9011 20.944C27.3121 21.1295 26.6836 20.803 26.4978 20.2145C26.3188 19.6476 25.5752 19.0736 24.5001 19.0736C23.3921 19.0736 22.4561 19.7326 22.4561 20.5126C22.4561 21.2925 23.3921 21.9514 24.5001 21.9514C26.8607 21.9514 28.7812 23.5994 28.7812 25.6252C28.7812 27.3189 27.4386 28.7486 25.6187 29.1717V29.7129C25.6187 30.33 25.1178 30.8303 24.5001 30.8303C23.8823 30.8303 23.3815 30.33 23.3815 29.7129V29.1743C22.0917 28.8799 21.024 28.0831 20.5178 26.9811C20.2601 26.4202 20.5064 25.7568 21.0679 25.4995C21.6292 25.242 22.2934 25.4881 22.551 26.049C22.8256 26.6466 23.627 27.064 24.5001 27.064C25.6081 27.064 26.544 26.405 26.544 25.6251C26.544 24.8451 25.608 24.1862 24.5001 24.1862C22.1395 24.1862 20.2189 22.5382 20.2189 20.5126C20.2189 18.8189 21.5615 17.3891 23.3815 16.966V16.4248C23.3815 15.8076 23.8823 15.3074 24.5001 15.3074Z" fill="#042925"/>
</g>
</svg>

<svg width="48" height="48" fill="none" xmlns="http://www.w3.org/2000/svg"><path d="M43.239 7.24 24.857 1.058a1.12 1.12 0 0 0-.714 0L5.762 7.24C5.307 7.393 5 7.82 5 8.3v15.347c0 11.368 8.112 21.18 19.288 23.333a1.117 1.117 0 0 0 .424 0C35.888 44.828 44 35.015 44 23.647V8.3c0-.48-.306-.906-.761-1.059Zm-1.476 16.407c0 10.227-7.246 19.065-17.263 21.097-10.016-2.032-17.263-10.87-17.263-21.097V9.102L24.5 3.296l17.263 5.806v14.545Zm-28.727-.578c0 6.315 5.143 11.452 11.464 11.452 6.322 0 11.465-5.137 11.465-11.452S30.822 11.617 24.5 11.617s-11.464 5.137-11.464 11.452Zm20.691 0c0 5.082-4.14 9.217-9.227 9.217-5.088 0-9.227-4.135-9.227-9.217 0-5.083 4.14-9.218 9.227-9.218 5.088 0 9.227 4.135 9.227 9.218ZM24.5 15.307c.618 0 1.119.5 1.119 1.118v.541c1.44.335 2.61 1.302 3.012 2.576a1.119 1.119 0 0 1-2.133.672c-.18-.566-.923-1.14-1.998-1.14-1.108 0-2.044.659-2.044 1.439s.936 1.438 2.044 1.438c2.36 0 4.281 1.648 4.281 3.674 0 1.694-1.342 3.124-3.162 3.547v.54a1.118 1.118 0 0 1-2.238 0v-.538c-1.29-.294-2.357-1.09-2.863-2.193a1.119 1.119 0 0 1 2.033-.932c.275.598 1.076 1.015 1.95 1.015 1.107 0 2.043-.659 2.043-1.439s-.936-1.439-2.044-1.439c-2.36 0-4.281-1.648-4.281-3.673 0-1.694 1.342-3.124 3.162-3.547v-.541c0-.617.501-1.118 1.12-1.118Z" fill="#042925"/></svg>
